X: 9438
T: Danny O'Donnell's
R: reel
M: 4/4
K: Dmajor
FE|DB,A,B, D2 DF|EA,A,A, GA,FA,|DB,A,B, DEFA|BdAF E2 FE|
DB,A,B, D2 DF|EA,A,A, GA,FA,|DB,A,B, DEFA|BdAF ED D2||
d2 fd edfd|defd B2 Bc|defd BcdB|AFDE FE E2|
d2 fd edfd|defd B2 Bc|dBcA BAFD|GBAG FD D2|

